plasma/desktoptheme/Materia/icons/video.svg

<svg xmlns="http://www.w3.org/2000/svg" width="32" height="32" version="1.1">
 <g id="22-22-video-display-brightness" transform="translate(32,10)">
  <rect style="opacity:0.001" width="22" height="22" x="0" y="0"/>
  <path style="fill:#dfdfdf" d="M 11,1.0996094 8.0996094,4 H 4 V 8.0996094 L 1.0996094,11 4,13.900391 V 18 H 8.0996094 L 11,20.900391 13.900391,18 H 18 V 13.900391 L 20.900391,11 18,8.0996094 V 4 H 13.900391 Z M 11,5 a 6,6 0 0 1 6,6 6,6 0 0 1 -6,6 6,6 0 0 1 -6,-6 6,6 0 0 1 6,-6 z m 0,2 c -2.209139,0 -4,1.790861 -4,4 0,2.209139 1.790861,4 4,4 z"/>
 </g>
 <g id="video-display-brightness" transform="translate(0,34.009998)">
  <rect style="opacity:0.001" width="32" height="32" x="0" y="-34.01"/>
  <g transform="translate(-1.366272e-6,-35)">
   <rect style="opacity:0.2" width="16" height="21" x="8" y="8" rx="1.25" ry="1.25"/>
   <rect style="fill:#8e8e8e" width="16" height="21" x="8" y="7" rx="1.25" ry="1.25"/>
   <rect style="opacity:0.2" width="26" height="20" x="3" y="6" rx="1.25" ry="1.25"/>
   <path style="fill:#595959" d="m 3,22 v 1.75 C 3,24.4425 3.5575,25 4.25,25 h 23.5 C 28.4425,25 29,24.4425 29,23.75 V 22 Z"/>
   <path style="fill:#333333" d="M 4.25,5 C 3.5575,5 3,5.5575 3,6.25 V 22 H 29 V 6.25 C 29,5.5575 28.4425,5 27.75,5 Z"/>
   <rect style="opacity:0.1;fill:#ffffff" width="26" height="1" x="3" y="22"/>
   <path style="fill:#ffffff;opacity:0.1" d="M 4.25 5 C 3.5575 5 3 5.5575 3 6.25 L 3 7.25 C 3 6.5575 3.5575 6 4.25 6 L 27.75 6 C 28.442 6 29 6.5575 29 7.25 L 29 6.25 C 29 5.5575 28.442 5 27.75 5 L 4.25 5 z"/>
   <path style="opacity:0.2" d="m 16,7.718802 c 0.73778,0.72803 1.443,1.5569 2.1895,2.2812 H 21 v 2.8086 c 0.72444,0.74643 1.5531,1.4536 2.2812,2.1914 -0.72806,0.7378 -1.5569,1.472 -2.2812,2.2207 v 2.7793 h -2.8105 c -0.747,0.724 -1.452,1.553 -2.19,2.281 -0.738,-0.728 -1.472,-1.557 -2.221,-2.281 h -2.779 v -2.782 c -0.724,-0.748 -1.5532,-1.48 -2.2812,-2.218 0.728,-0.738 1.5572,-1.445 2.2812,-2.192 v -2.8086 h 2.7793 c 0.749,-0.724 1.483,-1.5524 2.221,-2.2805 z m 0,3.2812 v 8 a 4,4 0 0 0 4,-4 4,4 0 0 0 -4,-4 z"/>
   <path style="fill:#ffffff" d="m 16,6.719102 c 0.738,0.728 1.443,1.5569 2.189,2.2812 H 21 v 2.809 c 0.724,0.746 1.553,1.453 2.281,2.191 -0.728,0.738 -1.557,1.472 -2.281,2.221 v 2.779 h -2.811 c -0.746,0.724 -1.451,1.553 -2.189,2.281 -0.738,-0.728 -1.472,-1.557 -2.221,-2.281 H 11 v -2.781 c -0.724,-0.749 -1.5532,-1.481 -2.2812,-2.219 0.728,-0.738 1.5572,-1.445 2.2812,-2.191 v -2.809 h 2.779 c 0.749,-0.7244 1.483,-1.5532 2.221,-2.2812 z m 0,3.2812 v 8 a 4,4 0 0 0 4,-4 4,4 0 0 0 -4,-4 z"/>
  </g>
 </g>
 <g id="video-card-inactive" transform="translate(0,-32)">
  <rect style="opacity:0.001" width="32" height="32" x="0" y="0"/>
  <g >
   <path style="opacity:0.2" d="M 7.3333,8.0004 C 6.5947,8.0004 6,8.6179 6,9.385 v 15.23 C 6,25.382 6.5947,26 7.3333,26 H 10 v -3 h 6 v 3 H 28.667 C 29.405,26 30,25.382 30,24.615 V 9.385 C 30,8.6175 29.405,8 28.667,8 Z"/>
   <path style="fill:#419d45" d="M 7.3333,7 C 6.5947,7 6,7.6175 6,8.3846 v 15.23 c 0,0.767 0.5947,1.385 1.3333,1.385 H 10 v -3 h 6 v 3 h 12.667 c 0.738,0 1.333,-0.618 1.333,-1.385 v -15.23 c 0,-0.7675 -0.595,-1.385 -1.333,-1.385 z"/>
   <path style="opacity:0.1;fill:#ffffff" d="M 7.334,7 C 6.5953,7 6,7.6177 6,8.3848 v 1 C 6,8.6177 6.5953,8 7.334,8 H 28.666 C 29.405,8 30,8.6177 30,9.3848 v -1 C 30,7.6177 29.405,7 28.666,7 Z"/>
   <path style="fill:#b7b7b7" d="m 15,7 v 2 h 1 V 7 Z m 2,0 v 2 h 1 V 7 Z m 2,0 v 2 h 1 V 7 Z m 2,0 v 2 h 1 V 7 Z m -10,4 v 1 h 2 v -1 z m 13,0 v 1 h 2 v -1 z m -13,2 v 1 h 2 v -1 z m 13,0 v 1 h 2 v -1 z m -13,2 v 1 h 2 v -1 z m 13,0 v 1 h 2 v -1 z m 0,2 v 1 h 2 v -1 z m -9,3 v 2 h 1 v -2 z m 2,0 v 2 h 1 v -2 z m 2,0 v 2 h 1 v -2 z m 2,0 v 2 h 1 v -2 z"/>
   <path style="fill:#b7b7b7" d="m 11,17 v 1 h 2 v -1 z"/>
   <rect style="fill:#4e4e4e" width="13" height="13" x="12" y="8" rx="2.6" ry="2.6"/>
   <path style="opacity:0.2;fill:none;stroke:#000000;stroke-width:2;stroke-linecap:round;stroke-linejoin:round" d="M 3,6 H 5 V 27"/>
   <path style="fill:none;stroke:#b7b7b7;stroke-width:2;stroke-linecap:round;stroke-linejoin:round" d="M 3,5 H 5 V 26"/>
   <g style="opacity:0.2" transform="translate(0,1)">
    <rect width="2" height="4" x="17" y="22"/>
    <rect width="2" height="4" x="20" y="22"/>
    <rect width="2" height="4" x="23" y="22"/>
    <rect width="2" height="4" x="26" y="22"/>
   </g>
   <g style="fill:#f8c44e" >
    <rect width="2" height="4" x="17" y="22"/>
    <rect width="2" height="4" x="20" y="22"/>
    <rect width="2" height="4" x="23" y="22"/>
    <rect width="2" height="4" x="26" y="22"/>
   </g>
   <path style="opacity:0.2;fill:#ffffff" d="M 3,4 A 1.0001,1.0001 0 0 0 2.1172,5.4941 1.0001,1.0001 0 0 1 3,4.9863 h 2 a 1.0001,1.0001 0 0 1 1,1 V 5 A 1.0001,1.0001 0 0 0 5,4 Z"/>
   <path style="fill:#ffffff" d="m 13,12 v 1 3 1 h 3 v -1 -2 h -1 v 2 h -1 v -3 h 2 v -1 h -2 z m 4,0 v 1 1 1 2 h 1 v -2 h 2 v -1 -2 z m 4,0 v 4 1 h 3 v -1 -4 h -1 v 4 h -1 v -4 z m -3,1 h 1 v 1 h -1 z"/>
  </g>
  <g transform="translate(-23,95)">
   <circle id="22-22-circle2691" style="opacity:0.2" cx="48" cy="-70" r="7"/>
   <circle style="fill:#db3c30" cx="48" cy="-71" r="7"/>
   <path style="fill:#ffffff" d="m 45,-74 v 1.199219 c 0,0.0926 0.0311,0.176228 0.04883,0.263672 L 46.585938,-71 l -1.53711,1.537109 C 45.030388,-69.3753 45,-69.290309 45,-69.199219 V -68 h 1.199219 c 0.09036,0 0.175657,-0.03068 0.263672,-0.04883 L 48,-69.585938 l 1.537109,1.53711 C 49.625129,-68.030682 49.710422,-68 49.800781,-68 H 51 v -1.199219 c 0,-0.09109 -0.03039,-0.176081 -0.04883,-0.263672 L 49.414062,-71 l 1.53711,-1.537109 C 50.968902,-72.624553 51,-72.708181 51,-72.800781 V -74 h -1.199219 c -0.0926,0 -0.17623,0.0311 -0.263672,0.04883 L 48,-72.414062 46.462891,-73.951172 C 46.375447,-73.968897 46.291815,-74 46.199219,-74 Z"/>
  </g>
 </g>
 <g id="22-22-video-card-inactive" transform="translate(27,-27)">
  <rect style="opacity:0.001" width="22" height="22" x="5" y="5"/>
  <path style="fill:#dfdfdf" d="m 9,8 c -1.325,0 -1.325,2 0,2 h 1 v 3 H 8 v 3 h 2 v 1 H 8 v 3 h 2 v 2 c 0,1.325 2,1.325 2,0 V 9 C 12,8.0000398 11,8 11,8 Z m 4,3 v 2 h 9 v 5 h 0.199219 c 0.31658,0 0.477092,0.07124 0.46289,0.06836 a 1.0001,1.0001 0 0 1 0.507813,0.273438 L 24,19.171875 V 11 Z m -4,3 h 1 v 1 H 9 Z m 5,0 v 4 h 1 v -4 z m 2,0 v 4 h 1 v -4 z m 2,0 v 4 h 1 v -4 z m 2,0 v 4 h 1 V 14 Z M 9,18 h 1 v 1 H 9 Z m 4,1 v 2 h 1 v 2 h 6.205078 a 1.0001,1.0001 0 0 1 0.136719,-0.169922 L 21.171875,22 20.341797,21.169922 A 1.0001,1.0001 0 0 1 20.207031,21 H 16 v -2 z"/>
  <path style="fill:#f44336" d="m 21.000002,18.999998 v 1.199219 c 0,0.0926 0.0311,0.176228 0.04883,0.263672 l 1.537108,1.537109 -1.53711,1.537109 C 21.03039,23.624697 21,23.709689 21,23.800779 v 1.199219 h 1.199219 c 0.09036,0 0.175657,-0.03068 0.263672,-0.04883 L 24,23.41406 25.537109,24.95117 C 25.625129,24.96932 25.710422,25 25.800781,25 H 27 V 23.800781 C 27,23.709691 26.96961,23.6247 26.95117,23.537109 L 25.414062,22 l 1.53711,-1.537109 c 0.01773,-0.08744 0.04883,-0.171072 0.04883,-0.263672 V 19 h -1.199219 c -0.0926,0 -0.17623,0.0311 -0.263672,0.04883 l -1.537109,1.537108 -1.537109,-1.53711 c -0.08744,-0.01772 -0.171076,-0.04883 -0.263672,-0.04883 z"/>
 </g>
 <g id="video-display" transform="translate(0,66.009998)">
  <rect style="opacity:0.001" width="32" height="32" x="0" y="-34"/>
  <g transform="translate(-1.366272e-6,-35)">
   <rect style="opacity:0.2" width="16" height="21" x="8" y="8" rx="1.25" ry="1.25"/>
   <rect style="fill:#8e8e8e" width="16" height="21" x="8" y="7" rx="1.25" ry="1.25"/>
   <rect style="opacity:0.2" width="26" height="20" x="3" y="6" rx="1.25" ry="1.25"/>
   <path style="fill:#595959" d="m 3,22 v 1.75 C 3,24.4425 3.5575,25 4.25,25 h 23.5 C 28.4425,25 29,24.4425 29,23.75 V 22 Z"/>
   <path style="fill:#333333" d="M 4.25,5 C 3.5575,5 3,5.5575 3,6.25 V 22 H 29 V 6.25 C 29,5.5575 28.4425,5 27.75,5 Z"/>
   <rect style="opacity:0.1;fill:#ffffff" width="26" height="1" x="3" y="22"/>
   <path style="fill:#ffffff;opacity:0.1" d="M 4.25 5 C 3.5575 5 3 5.5575 3 6.25 L 3 7.25 C 3 6.5575 3.5575 6 4.25 6 L 27.75 6 C 28.442 6 29 6.5575 29 7.25 L 29 6.25 C 29 5.5575 28.442 5 27.75 5 L 4.25 5 z"/>
  </g>
 </g>
 <g id="22-22-video-display" transform="translate(27,37)">
  <rect style="opacity:0.001" width="22" height="22" x="5" y="5"/>
  <path style="fill:#dfdfdf" d="M 9,9 C 8.446,9 8,9.446 8,10 v 10 c 0,0.554 0.446,1 1,1 h 5 c -0.554,0 -1,0.446 -1,1 v 1 h 6 v -1 c 0,-0.554 -0.446,-1 -1,-1 h 5 c 0.554,0 1,-0.446 1,-1 V 10 C 24,9.446 23.554,9 23,9 Z m 1,2 h 12 v 8 H 10 Z"/>
 </g>
</svg>

<?xml version="1.0" encoding="UTF-8"?>
<svg width="32" height="32" version="1.1" xmlns="http://www.w3.org/2000/svg">
 <g id="22-22-video-display-brightness" transform="translate(32,10)">
  <rect width="22" height="22" opacity=".001"/>
  <path d="m11 1.0996-2.9004 2.9004h-4.0996v4.0996l-2.9004 2.9004 2.9004 2.9004v4.0996h4.0996l2.9004 2.9004 2.9004-2.9004h4.0996v-4.0996l2.9004-2.9004-2.9004-2.9004v-4.0996h-4.0996zm0 3.9004a6 6 0 0 1 6 6 6 6 0 0 1-6 6 6 6 0 0 1-6-6 6 6 0 0 1 6-6zm0 2c-2.2091 0-4 1.7909-4 4s1.7909 4 4 4z" fill="#dfdfdf"/>
 </g>
 <g id="video-display-brightness" transform="translate(0 34.01)">
  <rect y="-34.01" width="32" height="32" opacity=".001"/>
  <g transform="translate(-1.3663e-6 -35)">
   <rect x="8" y="8" width="16" height="21" rx="1.25" ry="1.25" opacity=".2"/>
   <rect x="8" y="7" width="16" height="21" rx="1.25" ry="1.25" fill="#8e8e8e"/>
   <rect x="3" y="6" width="26" height="20" rx="1.25" ry="1.25" opacity=".2"/>
   <path d="m3 22v1.75c0 0.6925 0.5575 1.25 1.25 1.25h23.5c0.6925 0 1.25-0.5575 1.25-1.25v-1.75z" fill="#595959"/>
   <path d="M 4.25,5 C 3.5575,5 3,5.5575 3,6.25 V 22 H 29 V 6.25 C 29,5.5575 28.4425,5 27.75,5 Z" fill="#333"/>
   <rect x="3" y="22" width="26" height="1" fill="#fff" opacity=".1"/>
   <path d="m4.25 5c-0.6925 0-1.25 0.5575-1.25 1.25v1c0-0.6925 0.5575-1.25 1.25-1.25h23.5c0.692 0 1.25 0.5575 1.25 1.25v-1c0-0.6925-0.558-1.25-1.25-1.25h-23.5z" fill="#fff" opacity=".1"/>
   <path d="m16 7.7188c0.73778 0.72803 1.443 1.5569 2.1895 2.2812h2.8105v2.8086c0.72444 0.74643 1.5531 1.4536 2.2812 2.1914-0.72806 0.7378-1.5569 1.472-2.2812 2.2207v2.7793h-2.8105c-0.747 0.724-1.452 1.553-2.19 2.281-0.738-0.728-1.472-1.557-2.221-2.281h-2.779v-2.782c-0.724-0.748-1.5532-1.48-2.2812-2.218 0.728-0.738 1.5572-1.445 2.2812-2.192v-2.8086h2.7793c0.749-0.724 1.483-1.5524 2.221-2.2805zm0 3.2812v8a4 4 0 0 0 4-4 4 4 0 0 0-4-4z" opacity=".2"/>
   <path d="m16 6.7191c0.738 0.728 1.443 1.5569 2.189 2.2812h2.811v2.809c0.724 0.746 1.553 1.453 2.281 2.191-0.728 0.738-1.557 1.472-2.281 2.221v2.779h-2.811c-0.746 0.724-1.451 1.553-2.189 2.281-0.738-0.728-1.472-1.557-2.221-2.281h-2.779v-2.781c-0.724-0.749-1.5532-1.481-2.2812-2.219 0.728-0.738 1.5572-1.445 2.2812-2.191v-2.809h2.779c0.749-0.7244 1.483-1.5532 2.221-2.2812zm0 3.2812v8a4 4 0 0 0 4-4 4 4 0 0 0-4-4z" fill="#fff"/>
  </g>
 </g>
 <g id="video-card-inactive" transform="translate(0,-32)">
  <rect width="32" height="32" opacity=".001"/>
  <path d="m7.3333 8.0004c-0.7386 0-1.3333 0.6175-1.3333 1.3846v15.23c0 0.767 0.5947 1.385 1.3333 1.385h2.6667v-3h6v3h12.667c0.738 0 1.333-0.618 1.333-1.385v-15.23c0-0.7675-0.595-1.385-1.333-1.385z" opacity=".2"/>
  <path d="m7.3333 7c-0.7386 0-1.3333 0.6175-1.3333 1.3846v15.23c0 0.767 0.5947 1.385 1.3333 1.385h2.6667v-3h6v3h12.667c0.738 0 1.333-0.618 1.333-1.385v-15.23c0-0.7675-0.595-1.385-1.333-1.385z" fill="#419d45"/>
  <path d="M 7.334,7 C 6.5953,7 6,7.6177 6,8.3848 v 1 C 6,8.6177 6.5953,8 7.334,8 H 28.666 C 29.405,8 30,8.6177 30,9.3848 v -1 C 30,7.6177 29.405,7 28.666,7 Z" fill="#fff" opacity=".1"/>
  <path d="m15 7v2h1v-2zm2 0v2h1v-2zm2 0v2h1v-2zm2 0v2h1v-2zm-10 4v1h2v-1zm13 0v1h2v-1zm-13 2v1h2v-1zm13 0v1h2v-1zm-13 2v1h2v-1zm13 0v1h2v-1zm0 2v1h2v-1zm-9 3v2h1v-2zm2 0v2h1v-2zm2 0v2h1v-2zm2 0v2h1v-2z" fill="#b7b7b7"/>
  <path d="m11 17v1h2v-1z" fill="#b7b7b7"/>
  <rect x="12" y="8" width="13" height="13" rx="2.6" ry="2.6" fill="#4e4e4e"/>
  <path d="m3 6h2v21" fill="none" opacity=".2" stroke="#000" stroke-linecap="round" stroke-linejoin="round" stroke-width="2"/>
  <path d="m3 5h2v21" fill="none" stroke="#b7b7b7" stroke-linecap="round" stroke-linejoin="round" stroke-width="2"/>
  <g transform="translate(0,1)" opacity=".2">
   <rect x="17" y="22" width="2" height="4"/>
   <rect x="20" y="22" width="2" height="4"/>
   <rect x="23" y="22" width="2" height="4"/>
   <rect x="26" y="22" width="2" height="4"/>
  </g>
  <g fill="#f8c44e">
   <rect x="17" y="22" width="2" height="4"/>
   <rect x="20" y="22" width="2" height="4"/>
   <rect x="23" y="22" width="2" height="4"/>
   <rect x="26" y="22" width="2" height="4"/>
  </g>
  <path d="m3 4a1.0001 1.0001 0 0 0-0.8828 1.4941 1.0001 1.0001 0 0 1 0.8828-0.5078h2a1.0001 1.0001 0 0 1 1 1v-0.9863a1.0001 1.0001 0 0 0-1-1z" fill="#fff" opacity=".2"/>
  <path d="m13 12v5h3v-3h-1v2h-1v-3h2v-1h-2zm4 0v5h1v-2h2v-3zm4 0v5h3v-5h-1v4h-1v-4zm-3 1h1v1h-1z" fill="#fff"/>
  <g transform="translate(-23,95)">
   <circle id="22-22-circle2691" cx="48" cy="-70" r="7" opacity=".2"/>
   <circle cx="48" cy="-71" r="7" fill="#db3c30"/>
   <path d="m45-74v1.1992c0 0.0926 0.0311 0.17623 0.04883 0.26367l1.5371 1.5371-1.5371 1.5371c-0.01844 0.087591-0.048828 0.17258-0.048828 0.26367v1.1992h1.1992c0.09036 0 0.17566-0.03068 0.26367-0.04883l1.5371-1.5371 1.5371 1.5371c0.08802 0.018146 0.17331 0.048828 0.26367 0.048828h1.1992v-1.1992c0-0.09109-0.03039-0.17608-0.04883-0.26367l-1.5371-1.5371 1.5371-1.5371c0.01773-0.087444 0.048828-0.17107 0.048828-0.26367v-1.1992h-1.1992c-0.0926 0-0.17623 0.0311-0.26367 0.04883l-1.5371 1.5371-1.5371-1.5371c-0.087444-0.017725-0.17108-0.048828-0.26367-0.048828z" fill="#fff"/>
  </g>
 </g>
 <g id="22-22-video-card-inactive" transform="translate(27,-27)">
  <rect x="5" y="5" width="22" height="22" opacity=".001"/>
  <path d="m9 8c-1.325 0-1.325 2 0 2h1v3h-2v3h2v1h-2v3h2v2c0 1.325 2 1.325 2 0v-13c0-0.99996-1-1-1-1zm4 3v2h9v5h0.19922c0.31658 0 0.47709 0.07124 0.46289 0.06836a1.0001 1.0001 0 0 1 0.50781 0.27344l0.83008 0.83008v-8.1719zm-4 3h1v1h-1zm5 0v4h1v-4zm2 0v4h1v-4zm2 0v4h1v-4zm2 0v4h1v-4zm-11 4h1v1h-1zm4 1v2h1v2h6.2051a1.0001 1.0001 0 0 1 0.13672-0.16992l0.83008-0.83008-0.83008-0.83008a1.0001 1.0001 0 0 1-0.13477-0.16992h-4.207v-2z" fill="#dfdfdf"/>
  <path d="m21 19v1.1992c0 0.0926 0.0311 0.17623 0.04883 0.26367l1.5371 1.5371-1.5371 1.5371c-0.01844 0.08759-0.04883 0.17258-0.04883 0.26367v1.1992h1.1992c0.09036 0 0.17566-0.03068 0.26367-0.04883l1.5371-1.5371 1.5371 1.5371c0.08802 0.01815 0.17331 0.04883 0.26367 0.04883h1.1992v-1.1992c0-0.09109-0.03039-0.17608-0.04883-0.26367l-1.5371-1.5371 1.5371-1.5371c0.01773-0.08744 0.04883-0.17107 0.04883-0.26367v-1.1992h-1.1992c-0.0926 0-0.17623 0.0311-0.26367 0.04883l-1.5371 1.5371-1.5371-1.5371c-0.08744-0.01772-0.17108-0.04883-0.26367-0.04883z" fill="#f44336"/>
 </g>
 <g id="video-display" transform="translate(0 66.01)">
  <rect y="-34" width="32" height="32" opacity=".001"/>
  <g transform="translate(-1.3663e-6 -35)">
   <rect x="8" y="8" width="16" height="21" rx="1.25" ry="1.25" opacity=".2"/>
   <rect x="8" y="7" width="16" height="21" rx="1.25" ry="1.25" fill="#8e8e8e"/>
   <rect x="3" y="6" width="26" height="20" rx="1.25" ry="1.25" opacity=".2"/>
   <path d="m3 22v1.75c0 0.6925 0.5575 1.25 1.25 1.25h23.5c0.6925 0 1.25-0.5575 1.25-1.25v-1.75z" fill="#595959"/>
   <path d="M 4.25,5 C 3.5575,5 3,5.5575 3,6.25 V 22 H 29 V 6.25 C 29,5.5575 28.4425,5 27.75,5 Z" fill="#333"/>
   <rect x="3" y="22" width="26" height="1" fill="#fff" opacity=".1"/>
   <path d="m4.25 5c-0.6925 0-1.25 0.5575-1.25 1.25v1c0-0.6925 0.5575-1.25 1.25-1.25h23.5c0.692 0 1.25 0.5575 1.25 1.25v-1c0-0.6925-0.558-1.25-1.25-1.25h-23.5z" fill="#fff" opacity=".1"/>
  </g>
 </g>
 <g id="22-22-video-display" transform="translate(27,37)">
  <rect x="5" y="5" width="22" height="22" opacity=".001"/>
  <path d="m9 9c-0.554 0-1 0.446-1 1v10c0 0.554 0.446 1 1 1h5c-0.554 0-1 0.446-1 1v1h6v-1c0-0.554-0.446-1-1-1h5c0.554 0 1-0.446 1-1v-10c0-0.554-0.446-1-1-1zm1 2h12v8h-12z" fill="#dfdfdf"/>
 </g>
</svg>
